images/icons/office-calendar.svg

<?xml version="1.0" encoding="UTF-8" standalone="no"?>
<svg
   xmlns:dc="http://purl.org/dc/elements/1.1/"
   xmlns:cc="http://creativecommons.org/ns#"
   xmlns:rdf="http://www.w3.org/1999/02/22-rdf-syntax-ns#"
   xmlns:svg="http://www.w3.org/2000/svg"
   xmlns="http://www.w3.org/2000/svg"
   xmlns:xlink="http://www.w3.org/1999/xlink"
   version="1.1"
   width="64"
   height="64"
   id="svg6333">
  <defs
     id="defs6335">
    <linearGradient
       id="linearGradient4658">
      <stop
         id="stop4660"
         style="stop-color:#fafafa;stop-opacity:1;"
         offset="0" />
      <stop
         id="stop4662"
         style="stop-color:#e2e1de;stop-opacity:1;"
         offset="1" />
    </linearGradient>
    <radialGradient
       cx="4.9929786"
       cy="43.5"
       r="2.5"
       fx="4.9929786"
       fy="43.5"
       id="radialGradient3337-2-2-8"
       xlink:href="#linearGradient3688-166-749-4-0-3-8-1"
       gradientUnits="userSpaceOnUse"
       gradientTransform="matrix(2.003784,0,0,1.4,27.98813,-17.4)" />
    <linearGradient
       id="linearGradient3688-166-749-4-0-3-8-1">
      <stop
         id="stop2883-4-0-1-8-1"
         style="stop-color:#181818;stop-opacity:1"
         offset="0" />
      <stop
         id="stop2885-9-2-9-6-6"
         style="stop-color:#181818;stop-opacity:0"
         offset="1" />
    </linearGradient>
    <radialGradient
       cx="4.9929786"
       cy="43.5"
       r="2.5"
       fx="4.9929786"
       fy="43.5"
       id="radialGradient3339-1-4-96"
       xlink:href="#linearGradient3688-464-309-9-2-4-2-83"
       gradientUnits="userSpaceOnUse"
       gradientTransform="matrix(2.003784,0,0,1.4,-20.01187,-104.4)" />
    <linearGradient
       id="linearGradient3688-464-309-9-2-4-2-83">
      <stop
         id="stop2889-7-9-6-9-4"
         style="stop-color:#181818;stop-opacity:1"
         offset="0" />
      <stop
         id="stop2891-6-6-1-7-4"
         style="stop-color:#181818;stop-opacity:0"
         offset="1" />
    </linearGradient>
    <linearGradient
       id="linearGradient3702-501-757-8-4-1-1-4">
      <stop
         id="stop2895-8-9-9-1-7"
         style="stop-color:#181818;stop-opacity:0"
         offset="0" />
      <stop
         id="stop2897-7-8-7-7-6"
         style="stop-color:#181818;stop-opacity:1"
         offset="0.5" />
      <stop
         id="stop2899-4-5-1-5-0"
         style="stop-color:#181818;stop-opacity:0"
         offset="1" />
    </linearGradient>
    <linearGradient
       x1="25.058096"
       y1="47.027729"
       x2="25.058096"
       y2="39.999443"
       id="linearGradient5515"
       xlink:href="#linearGradient3702-501-757-8-4-1-1-4"
       gradientUnits="userSpaceOnUse" />
    <linearGradient
       id="linearGradient3510-2">
      <stop
         offset="0"
         style="stop-color:#000000;stop-opacity:1"
         id="stop3512-7" />
      <stop
         offset="1"
         style="stop-color:#000000;stop-opacity:0"
         id="stop3514-6" />
    </linearGradient>
    <linearGradient
       id="linearGradient3924-2-2-5-8-0">
      <stop
         offset="0"
         style="stop-color:#ffffff;stop-opacity:1"
         id="stop3926-9-4-9-6-6" />
      <stop
         offset="0.06316455"
         style="stop-color:#ffffff;stop-opacity:0.23529412"
         id="stop3928-9-8-6-5-1" />
      <stop
         offset="0.95056331"
         style="stop-color:#ffffff;stop-opacity:0.15686275"
         id="stop3930-3-5-1-7-98" />
      <stop
         offset="1"
         style="stop-color:#ffffff;stop-opacity:0.39215687"
         id="stop3932-8-0-4-8-60" />
    </linearGradient>
    <linearGradient
       xlink:href="#linearGradient3924-2-2-5-8-0"
       id="linearGradient3681"
       gradientUnits="userSpaceOnUse"
       gradientTransform="matrix(1.4324324,0,0,1.4324324,-2.3783756,-2.3783737)"
       x1="23.99999"
       y1="4.999989"
       x2="23.99999"
       y2="43" />
    <linearGradient
       xlink:href="#linearGradient3924-2-2-5-8-0-2"
       id="linearGradient3681-6"
       gradientUnits="userSpaceOnUse"
       gradientTransform="matrix(1.4324324,0,0,1.4324324,-2.3783756,-2.3783736)"
       x1="23.99999"
       y1="4.999989"
       x2="23.99999"
       y2="43" />
    <linearGradient
       id="linearGradient3924-2-2-5-8-0-2">
      <stop
         offset="0"
         style="stop-color:#ffffff;stop-opacity:1"
         id="stop3926-9-4-9-6-6-5" />
      <stop
         offset="0.06316455"
         style="stop-color:#ffffff;stop-opacity:0.23529412"
         id="stop3928-9-8-6-5-1-5" />
      <stop
         offset="0.95056331"
         style="stop-color:#ffffff;stop-opacity:0.15686275"
         id="stop3930-3-5-1-7-98-0" />
      <stop
         offset="1"
         style="stop-color:#ffffff;stop-opacity:0.39215687"
         id="stop3932-8-0-4-8-60-3" />
    </linearGradient>
    <linearGradient
       id="linearGradient3242-7-3-8-0-4-58-06">
      <stop
         id="stop3244-5-8-5-6-4-3-8"
         style="stop-color:#cdf87e;stop-opacity:1"
         offset="0" />
      <stop
         id="stop3246-9-5-1-5-3-0-7"
         style="stop-color:#a2e34f;stop-opacity:1"
         offset="0.26238" />
      <stop
         id="stop3248-7-2-0-7-5-35-9"
         style="stop-color:#68b723;stop-opacity:1"
         offset="0.66093999" />
      <stop
         id="stop3250-8-2-8-5-6-40-4"
         style="stop-color:#1d7e0d;stop-opacity:1"
         offset="1" />
    </linearGradient>
    <linearGradient
       xlink:href="#linearGradient4658"
       id="linearGradient4556-9"
       gradientUnits="userSpaceOnUse"
       gradientTransform="matrix(1.2903867,0,0,1.2373259,1.0307217,-1.0669882)"
       x1="25.132275"
       y1="15.499894"
       x2="25.132275"
       y2="48.395687" />
    <linearGradient
       xlink:href="#linearGradient3242-7-3-8-0-4-58-06"
       id="linearGradient4654"
       x1="24.169817"
       y1="-12.24244"
       x2="24.169817"
       y2="48.933952"
       gradientUnits="userSpaceOnUse" />
    <linearGradient
       xlink:href="#linearGradient3510-2"
       id="linearGradient4656"
       gradientUnits="userSpaceOnUse"
       gradientTransform="matrix(1.4,0,0,0.5,-1.5999986,10.000001)"
       x1="23.954144"
       y1="15.999304"
       x2="23.954144"
       y2="19.963179" />
    <linearGradient
       gradientTransform="matrix(0.09153846,0,0,0.02058823,-1.084616,49.45142)"
       gradientUnits="userSpaceOnUse"
       xlink:href="#linearGradient5048"
       id="linearGradient3128"
       y2="609.50507"
       x2="302.85715"
       y1="366.64789"
       x1="302.85715" />
    <linearGradient
       id="linearGradient5048">
      <stop
         offset="0"
         style="stop-color:#000000;stop-opacity:0"
         id="stop5050" />
      <stop
         offset="0.5"
         style="stop-color:#000000;stop-opacity:1"
         id="stop5056" />
      <stop
         offset="1"
         style="stop-color:#000000;stop-opacity:0"
         id="stop5052" />
    </linearGradient>
    <radialGradient
       gradientTransform="matrix(-0.03132632,0,0,0.02058823,28.779136,49.45142)"
       gradientUnits="userSpaceOnUse"
       xlink:href="#linearGradient5060"
       id="radialGradient3060"
       fy="486.64789"
       fx="605.71429"
       r="117.14286"
       cy="486.64789"
       cx="605.71429" />
    <linearGradient
       id="linearGradient5060">
      <stop
         offset="0"
         style="stop-color:#000000;stop-opacity:1"
         id="stop5062" />
      <stop
         offset="1"
         style="stop-color:#000000;stop-opacity:0"
         id="stop5064" />
    </linearGradient>
    <radialGradient
       gradientTransform="matrix(0.03132633,0,0,0.02058823,35.220859,49.45142)"
       gradientUnits="userSpaceOnUse"
       xlink:href="#linearGradient5060"
       id="radialGradient3057"
       fy="486.64789"
       fx="605.71429"
       r="117.14286"
       cy="486.64789"
       cx="605.71429" />
    <linearGradient
       id="linearGradient3600-9">
      <stop
         offset="0"
         style="stop-color:#f4f4f4;stop-opacity:1"
         id="stop3602-3" />
      <stop
         offset="1"
         style="stop-color:#dbdbdb;stop-opacity:1"
         id="stop3604-7" />
    </linearGradient>
    <linearGradient
       gradientTransform="matrix(1.3142827,0,0,1.2602393,0.4572141,-2.1793201)"
       gradientUnits="userSpaceOnUse"
       xlink:href="#linearGradient3600-9"
       id="linearGradient3054"
       y2="47.013336"
       x2="25.132275"
       y1="0.98520643"
       x1="25.132275" />
    <linearGradient
       id="linearGradient3977-4">
      <stop
         offset="0"
         style="stop-color:#ffffff;stop-opacity:1"
         id="stop3979-7" />
      <stop
         offset="0.01214366"
         style="stop-color:#ffffff;stop-opacity:0.23529412"
         id="stop3981-6" />
      <stop
         offset="0.98781353"
         style="stop-color:#ffffff;stop-opacity:0.15686275"
         id="stop3983-5" />
      <stop
         offset="1"
         style="stop-color:#ffffff;stop-opacity:0.39215687"
         id="stop3985-6" />
    </linearGradient>
    <linearGradient
       gradientTransform="matrix(1.2162162,0,0,1.5405376,2.8108184,-6.9729501)"
       gradientUnits="userSpaceOnUse"
       xlink:href="#linearGradient3977-4"
       id="linearGradient3051"
       y2="42.100208"
       x2="23.99999"
       y1="5.8641062"
       x1="23.99999" />
    <linearGradient
       id="linearGradient3104-6">
      <stop
         offset="0"
         style="stop-color:#000000;stop-opacity:0.31782946"
         id="stop3106-3" />
      <stop
         offset="1"
         style="stop-color:#000000;stop-opacity:0.24031007"
         id="stop3108-9" />
    </linearGradient>
    <linearGradient
       gradientTransform="matrix(1.0843523,0,0,1.1997367,79.550862,-4.1628601)"
       gradientUnits="userSpaceOnUse"
       xlink:href="#linearGradient3104-6"
       id="linearGradient3048"
       y2="2.9062471"
       x2="-51.786404"
       y1="50.786446"
       x1="-51.786404" />
  </defs>
  <metadata
     id="metadata6338">
    <rdf:RDF>
      <cc:Work
         rdf:about="">
        <dc:format>image/svg+xml</dc:format>
        <dc:type
           rdf:resource="http://purl.org/dc/dcmitype/StillImage" />
        <dc:title />
      </cc:Work>
    </rdf:RDF>
  </metadata>
  <g
     transform="matrix(1.5789502,0,0,0.7142857,-5.894751,27.928572)"
     id="g3712-8-2-4-4-4"
     style="opacity:0.35">
    <rect
       width="5"
       height="7"
       x="38"
       y="40"
       id="rect2801-5-5-7-9-5"
       style="fill:url(#radialGradient3337-2-2-8);fill-opacity:1;stroke:none" />
    <rect
       width="5"
       height="7"
       x="-10"
       y="-47"
       transform="scale(-1,-1)"
       id="rect3696-3-0-3-7-0"
       style="fill:url(#radialGradient3339-1-4-96);fill-opacity:1;stroke:none" />
    <rect
       width="28"
       height="7.0000005"
       x="10"
       y="40"
       id="rect3700-5-6-8-4-5"
       style="fill:url(#linearGradient5515);fill-opacity:1;stroke:none" />
  </g>
  <rect
     width="54"
     height="54"
     rx="2.5"
     ry="2.5"
     x="5"
     y="5"
     id="rect5505-21-3-8-5-2-6"
     style="color:#000000;fill:url(#linearGradient4556-9);fill-opacity:1;fill-rule:nonzero;stroke:none;stroke-width:0.99999994000000003;marker:none;visibility:visible;display:inline;overflow:visible;enable-background:accumulate" />
  <rect
     width="56"
     height="2"
     rx="0"
     ry="0"
     x="4"
     y="18"
     id="rect3508"
     style="opacity:0.15;fill:url(#linearGradient4656);fill-opacity:1;fill-rule:nonzero;stroke:none;stroke-width:1;marker:none;visibility:visible;display:inline;overflow:visible;enable-background:accumulate" />
  <rect
     width="53"
     height="53"
     rx="2"
     ry="2"
     x="5.5"
     y="5.5000019"
     id="rect6741-5-0-2-3"
     style="opacity:1;fill:none;stroke:url(#linearGradient3681);stroke-width:1;stroke-linecap:round;stroke-linejoin:round;stroke-miterlimit:4;stroke-opacity:1;stroke-dasharray:none;stroke-dashoffset:0" />
  <path
     style="opacity:0.3;fill:none;stroke:#000000;stroke-width:0.99999994;stroke-miterlimit:4;stroke-dasharray:none"
     d="m 4.5,18 0,38.5 c 0,1.662 1.338,3 3,3 l 49,0 c 1.662,0 3,-1.338 3,-3 l 0,-38.5"
     id="rect4567" />
  <path
     style="color:#000000;fill:url(#linearGradient4654);fill-opacity:1;fill-rule:nonzero;stroke:none;stroke-width:0.99999994000000003;marker:none;visibility:visible;display:inline;overflow:visible;enable-background:accumulate"
     d="m 7.5,4.5 c -1.662,0 -3,1.338 -3,3 l 0,10 55,0 0,-10 c 0,-1.662 -1.338,-3 -3,-3 z"
     id="rect5505-21-3-8-5-2-6-1" />
  <path
     style="opacity:0.4;color:#000000;fill:none;stroke:#126400;stroke-width:1;stroke-linecap:round;stroke-linejoin:miter;stroke-miterlimit:4;stroke-opacity:1;stroke-dasharray:none;stroke-dashoffset:0;marker:none;visibility:visible;display:inline;overflow:visible;enable-background:accumulate"
     d="m 7.5,4.5 c -1.662,0 -3,1.338 -3,3 l 0,10 55,0 0,-10 c 0,-1.662 -1.338,-3 -3,-3 z"
     id="rect5505-21-3-8-9-1-1-7-8" />
  <path
     style="opacity:0.5;fill:none;stroke:url(#linearGradient3681-6);stroke-width:1;stroke-linecap:round;stroke-linejoin:round;stroke-miterlimit:4;stroke-opacity:1;stroke-dasharray:none;stroke-dashoffset:0"
     d="m 7.5,5.5 c -1.108,0 -2,0.892 -2,2 l 0,9 53,0 0,-9 c 0,-1.108 -0.892,-2 -2,-2 z"
     id="rect6741-5-0-2-3-4" />
  <path
     id="rect4188-6-4"
     style="opacity:0.2;fill:none;stroke:#ffffff;stroke-width:1;stroke-miterlimit:4;stroke-opacity:1;stroke-dasharray:none"
     d="m 52.5,45.5 -41,0 z M 52.469808,26.530497 11.5,26.5 l 0,26 41,0 z M 52.5,39.499592 l -41,0 M 52.5,33.5 l -41,0 M 19.527775,26.55763 19.472225,52.5 M 27.510671,26.670554 27.5,52.5 M 35.494267,26.580214 35.505737,52.5 M 43.458576,26.489875 43.5,52.5" />
  <path
     id="rect4188-6-4-0"
     style="opacity:0.25000000000000000;fill:none;stroke:#5e553c;stroke-width:1;stroke-miterlimit:4;stroke-opacity:1;stroke-dasharray:none"
     d="m 52.5,44.500408 -41,0 z M 52.469808,25.530905 11.5,25.500408 l 0,26 41,0 z M 52.5,38.5 l -41,0 m 41,-5.999592 -41,0 m 8.027775,-6.94237 -0.05555,25.94237 M 27.510671,25.670962 27.5,51.500408 m 7.994267,-25.919786 0.01147,25.919786 M 43.458576,25.490283 43.5,51.500408" />
  <path
     style="opacity:0.3;color:#000000;fill:#ffffff;fill-opacity:1;fill-rule:nonzero;stroke:none;stroke-width:1.07444978;marker:none;visibility:visible;display:inline;overflow:visible;enable-background:accumulate"
     id="path4682-6"
     d="m 11.464567,11.472441 a 1.1023622,1.0472441 0 1 1 -2.2047246,0 1.1023622,1.0472441 0 1 1 2.2047246,0 z"
     transform="matrix(1.3607143,0,0,1.4323308,-1.6,-4.4323301)" />
  <path
     style="opacity:0.4;color:#000000;fill:#126400;fill-opacity:1;fill-rule:nonzero;stroke:none;stroke-width:1.07444978;marker:none;visibility:visible;display:inline;overflow:visible;enable-background:accumulate"
     id="path4682-6-1"
     d="m 11.464567,11.472441 a 1.1023622,1.0472441 0 1 1 -2.2047246,0 1.1023622,1.0472441 0 1 1 2.2047246,0 z"
     transform="matrix(1.3607143,0,0,1.4323308,-1.6,-5.4323303)" />
  <path
     style="opacity:0.3;color:#000000;fill:#ffffff;fill-opacity:1;fill-rule:nonzero;stroke:none;stroke-width:1.07444978;marker:none;visibility:visible;display:inline;overflow:visible;enable-background:accumulate"
     id="path4682-6-3"
     d="m 11.464567,11.472441 a 1.1023622,1.0472441 0 1 1 -2.2047246,0 1.1023622,1.0472441 0 1 1 2.2047246,0 z"
     transform="matrix(1.3607143,0,0,1.4323308,36.9,-4.4323303)" />
  <path
     style="opacity:0.4;color:#000000;fill:#126400;fill-opacity:1;fill-rule:nonzero;stroke:none;stroke-width:1.07444978;marker:none;visibility:visible;display:inline;overflow:visible;enable-background:accumulate"
     id="path4682-6-1-5"
     d="m 11.464567,11.472441 a 1.1023622,1.0472441 0 1 1 -2.2047246,0 1.1023622,1.0472441 0 1 1 2.2047246,0 z"
     transform="matrix(1.3607143,0,0,1.4323308,36.9,-5.4323303)" />
</svg>

<svg xmlns="http://www.w3.org/2000/svg" xmlns:xlink="http://www.w3.org/1999/xlink" viewBox="0 0 64 64"><defs><path id="A" d="m11.464567 11.472441a1.102362 1.047244 0 1 1 -2.204725 0 1.102362 1.047244 0 1 1 2.204725 0" color="#000"/><linearGradient id="4"><stop stop-color="#fff"/><stop offset=".063" stop-color="#fff" stop-opacity=".235"/><stop offset=".951" stop-color="#fff" stop-opacity=".157"/><stop offset="1" stop-color="#fff" stop-opacity=".392"/></linearGradient><linearGradient xlink:href="#4" id="6" gradientUnits="userSpaceOnUse" y1="4.784" x2="0" y2="59.22"/><linearGradient id="8" y1="-12.242" x2="0" y2="48.934" gradientUnits="userSpaceOnUse"><stop stop-color="#cdf87e"/><stop offset=".262" stop-color="#a2e34f"/><stop offset=".661" stop-color="#68b723"/><stop offset="1" stop-color="#1d7e0d"/></linearGradient><linearGradient id="7" gradientUnits="userSpaceOnUse" gradientTransform="matrix(1.29039 0 0 1.23733 1.031-1.067)" y1="15.5" x2="0" y2="48.4"><stop stop-color="#fafafa"/><stop offset="1" stop-color="#e2e1de"/></linearGradient><linearGradient xlink:href="#4" id="5" gradientUnits="userSpaceOnUse" y1="4.784" x2="0" y2="59.22"/><linearGradient id="9" gradientUnits="userSpaceOnUse" gradientTransform="matrix(1.4 0 0 .5-1.6 10)" y1="15.999" x2="0" y2="19.963"><stop/><stop offset="1" stop-opacity="0"/></linearGradient><linearGradient id="1"><stop stop-color="#181818"/><stop offset="1" stop-color="#181818" stop-opacity="0"/></linearGradient><linearGradient y1="47.03" x2="0" y2="39.999" id="3" gradientUnits="userSpaceOnUse"><stop stop-color="#181818" stop-opacity="0"/><stop offset=".5" stop-color="#181818"/><stop offset="1" stop-color="#181818" stop-opacity="0"/></linearGradient><radialGradient cx="4.993" cy="43.5" r="2.5" id="0" xlink:href="#1" gradientUnits="userSpaceOnUse" gradientTransform="matrix(2.0038 0 0 1.4 27.988-17.4)"/><radialGradient cx="4.993" cy="43.5" r="2.5" id="2" xlink:href="#1" gradientUnits="userSpaceOnUse" gradientTransform="matrix(2.0038 0 0 1.4-20.01-104.4)"/></defs><g transform="matrix(1.57895 0 0 .71429-5.895 27.929)" opacity=".35"><path fill="url(#0)" d="m38 40h5v7h-5z"/><path transform="scale(-1-1)" fill="url(#2)" d="m-10-47h5v7h-5z"/><path fill="url(#3)" d="m10 40h28v7h-28z"/></g><rect width="54" height="54" rx="2.5" x="5" y="5" fill="url(#7)" color="#000"/><path opacity=".15" fill="url(#9)" d="m4 18h56v2h-56z"/><g fill="none"><rect width="53" height="53" rx="2" x="5.5" y="5.5" opacity="1" stroke="url(#5)" stroke-linejoin="round" stroke-linecap="round"/><path d="m4.5 18v38.5c0 1.662 1.338 3 3 3h49c1.662 0 3-1.338 3-3v-38.5" opacity=".3" stroke="#000"/></g><g color="#000"><path d="m7.5 4.5c-1.662 0-3 1.338-3 3v10h55v-10c0-1.662-1.338-3-3-3z" fill="url(#8)"/><path d="m7.5 4.5c-1.662 0-3 1.338-3 3v10h55v-10c0-1.662-1.338-3-3-3z" opacity=".4" fill="none" stroke="#126400" stroke-linecap="round"/></g><g fill="none"><path d="m7.5 5.5c-1.108 0-2 .892-2 2v9h53v-9c0-1.108-.892-2-2-2z" opacity=".5" stroke="url(#6)" stroke-linejoin="round" stroke-linecap="round"/><path d="m52.5 45.5h-41zm-.03-18.97l-40.97-.03v26h41zm.03 12.969h-41m41-6h-41m8.03-6.942l-.056 25.942m8.04-25.829l-.011 25.829m7.994-25.92l.011 25.92m7.953-26.01l.041 26.01" opacity=".2" stroke="#fff"/><path d="m52.5 44.5h-41zm-.03-18.97l-40.97-.03v26h41zm.03 12.969h-41m41-6h-41m8.03-6.942l-.056 25.942m8.04-25.829l-.011 25.829m7.994-25.92l.011 25.92m7.953-26.01l.041 26.01" opacity=".25" stroke="#5e553c"/></g><use transform="matrix(1.36071 0 0 1.43233-1.6-4.432)" opacity=".3" fill="#fff" xlink:href="#A"/><use transform="matrix(1.36071 0 0 1.43233-1.6-5.432)" opacity=".4" fill="#126400" xlink:href="#A"/><use transform="matrix(1.36071 0 0 1.43233 36.9-4.432)" opacity=".3" fill="#fff" xlink:href="#A"/><use transform="matrix(1.36071 0 0 1.43233 36.9-5.432)" opacity=".4" fill="#126400" xlink:href="#A"/></svg>
